X:598
T:
S:Uppt. efter föresjungning av pigan Selma Ahlgren Ganne i Burs.
R:schottis
O:Gotland, Burs
M:2/4
L:1/16
K:G
b2ba g2d2|e2ed c4|e2ed c2e2|d2dc B2d2|b2ba g2d2|e2ed c4|e2fe d2fa|g2g2
g4::d2B2 d2e2|d2c2 cBc2|a2f2 a2b2|a2g2 gfg2|d2B2 d2e2|d2c2 cBc2|a2f2 a2ba|g2g2
g4:|

